!!!OTL: ES WAR EIN KOENIG IN THULE
!!!ARE: Europa, Mitteleuropa, Deutschland
!!!SCT: B0110
!!!YEM: Copyright 1995, estate of Helmut Schaffrath.
**kern
*ICvox
*Ivox
*M6/4
*k[]
*a:
{4ee
=1
2aa
4aa
4.ee
8ee
4ee
=2
2.ffn
2ccn}
{4ccn
=3
2dd
4ee
2ffn
4dd
=4
1ee
4r}
{4ee
=5
2aa
4aa
2ggn
4ggn
=6
2.ccn
2dd}
{8dd
8dd
=7
2ee
4ffn
2dd
4ee
=8
1a
4r}
==
!!!AGN: Ballade, Romanze
!!!ONB: ESAC (Essen Associative Code) Database: BOEHME
!!!AMT: compound duple
!!!AIN: vox
!!!EED: Helmut Schaffrath
!!!EEV: 1.0
*-
